X:1
T:Title
%%score { 1 | 2 }
L:1/8
M:6/8
K:G
V:1 treble nm="Grand Piano"
V:2 bass 
V:1
 z3 z2[Q:1/4=90] D | B2 A G2 [G,DF] | [G,CE]2 [G,EG] [G,B,D]2 [B,DG] | [DB]2 [DB] [DB]AG | %4
 A3- A2 [DFc] | [DGB]2 [CDA] [B,DG]2 [G,DF] | [G,CE]2 [CEG] [B,D]2 [B,DG] | %7
 [CEA]2 [EAc] [DGB]2 [CFA] |[M:5/8] G-G- G3 |[M:1/8] D |[M:3/4] G3 B2 G | B3 d3 | %12
 [Ge]2 [Ge] [Gd]2 [GB] | [FA]4- [FA][Fc] | B2 A G2 [DF] | [EA]2 [EG] E2 E | D2 B B2 A | %17
[M:5/8] [B,G]-[B,G]- [B,G]3 |] %18
V:2
 z3 z2 [G,B,] | [G,D]2 [G,CD] [G,B,D]2 B,, | C,2 C, G,,2 G,, | %3
 [G,,G,]2 [G,,G,] [G,,G,][D,F,C][E,A,^C] | [D,F,D]3- [D,F,D]2 D, | G,2 G, G,2 B,, | C,2 C, G,2 G, | %7
 C,2 C, D,2 D, |[M:5/8] [G,B,D]-[G,B,D]- [G,B,D]3 |[M:1/8] [G,B,] | %10
[M:3/4][K:treble] [G,B,D]3 [G,DG]2 [G,B,D] | [G,DG]3 [G,B,G]3 | [C,C]2 [E,C] [G,B,]2 [G,D] | %13
 [D,D]4- [D,D][D,D] | [G,DG]2 [G,CD][K:bass] [G,B,D]2 [B,,G,] | [C,C]2 [C,C] [C,G,C]2 [C,G,C] | %16
 [D,G,B,]2 [D,G,D] [D,G,D]2 [D,F,C] |[M:5/8] [G,,G,]-[G,,G,]- [G,,G,]3 |] %18

